**kern
*clefF4
*k[]
*M4/4
=1
1E 1G 1c 1e
=2
1D#X 1F#X 1B 1d#X
=3||
1C 1G 1c 1e
=4
1C 1G 1c 1e-X
=5||
1E 1G 1c 1e
=6
1E 1G#X 1c#X 1e
=7||
1C 1G 1c 1e
=8
1D 1F 1A 1d
=9||
1C 1G 1c 1e
=10
1E-X 1G-X 1B-X 1e-X
=11||
1C 1G 1c 1e
=12
1E 1G 1B 1e
=13||
1C 1G 1c 1e
=14
1F 1A-X 1c 1f
!!linebreak:original
=15||
1E 1G 1c 1e
=16
1AA 1F#X 1c#X 1f#X
=17||
1C 1E 1G 1c
=18
1GG 1D 1G 1B-X
=19||
1C 1E 1G
=20
1C-X 1E-X 1A-X
=21||
1C 1E 1G 1c
=22
1AA 1E 1A 1c
=23||
1C 1E 1G 1c
=24
1BB-X 1F 1B-X 1d-X
=25||
1E 1G 1c 1e
=26
1D 1F#X 1B 1f#X
==
*-
!!!system-decoration: [(s1
